svg/battery.svg

<?xml version="1.0" encoding="UTF-8" standalone="no"?>
<svg
   xmlns:dc="http://purl.org/dc/elements/1.1/"
   xmlns:cc="http://creativecommons.org/ns#"
   xmlns:rdf="http://www.w3.org/1999/02/22-rdf-syntax-ns#"
   xmlns:svg="http://www.w3.org/2000/svg"
   xmlns="http://www.w3.org/2000/svg"
   viewBox="0 0 192 192"
   height="192"
   width="192"
   id="svg7581"
   version="1.1">
  <metadata
     id="metadata7587">
    <rdf:RDF>
      <cc:Work
         rdf:about="">
        <dc:format>image/svg+xml</dc:format>
        <dc:type
           rdf:resource="http://purl.org/dc/dcmitype/StillImage" />
        <dc:title></dc:title>
      </cc:Work>
    </rdf:RDF>
  </metadata>
  <defs
     id="defs7585" />
  <path
     id="rect8134"
     d="M 33.654297 21.212891 C 26.761968 21.212891 21.212891 26.761968 21.212891 33.654297 L 21.212891 158.3457 C 21.212891 165.23803 26.761968 170.78711 33.654297 170.78711 L 158.3457 170.78711 C 165.23803 170.78711 170.78711 165.23803 170.78711 158.3457 L 170.78711 33.654297 C 170.78711 26.761968 165.23803 21.212891 158.3457 21.212891 L 33.654297 21.212891 z M 84.40625 45.740234 L 106.74414 45.740234 L 106.74414 56.060547 L 123.84961 56.060547 L 123.84961 146.25977 L 68.150391 146.25977 L 68.150391 56.060547 L 84.40625 56.060547 L 84.40625 45.740234 z "
     style="opacity:1;fill:#ffffff;fill-opacity:1;stroke:none;stroke-width:1.03969753;stroke-opacity:1" />
</svg>

<svg xmlns="http://www.w3.org/2000/svg" viewBox="0 0 192 192" height="192" width="192">
    <path d="M33.654 21.213c-6.892 0-12.44 5.55-12.44 12.44v124.693c0 6.892 5.548 12.44 12.44 12.44h124.692c6.892 0 12.44-5.548 12.44-12.44V33.654c0-6.892-5.548-12.44-12.44-12.44H33.654zM84.406 45.74h22.338v10.32h17.106v90.2h-55.7v-90.2h16.256V45.74z" fill="#fff"/>
</svg>
